assets/icons/whatsapp.svg

<svg width="38" height="38" viewBox="0 0 38 38" fill="none" xmlns="http://www.w3.org/2000/svg">
<circle cx="19" cy="19" r="19" fill="#8A8A8A"/>
<g clip-path="url(#clip0_398_278)">
<path d="M19.0022 10H18.9978C14.0354 10 10 14.0365 10 19C10 20.9688 10.6345 22.7935 11.7134 24.2751L10.5918 27.6186L14.0511 26.5128C15.4742 27.4555 17.1719 28 19.0022 28C23.9646 28 28 23.9624 28 19C28 14.0376 23.9646 10 19.0022 10Z" fill="#0D0D0D"/>
<path d="M24.2391 22.709C24.022 23.3221 23.1602 23.8306 22.4729 23.9791C22.0026 24.0792 21.3884 24.1591 19.3206 23.3018C16.6757 22.2061 14.9725 19.5185 14.8397 19.3441C14.7126 19.1697 13.771 17.921 13.771 16.6295C13.771 15.338 14.4269 14.7091 14.6912 14.4391C14.9084 14.2175 15.2672 14.1162 15.6115 14.1162C15.7229 14.1162 15.823 14.1218 15.913 14.1263C16.1774 14.1376 16.3101 14.1533 16.4845 14.5707C16.7016 15.0938 17.2304 16.3853 17.2934 16.5181C17.3575 16.6508 17.4216 16.8308 17.3316 17.0052C17.2472 17.1852 17.173 17.2651 17.0402 17.4181C16.9075 17.5711 16.7815 17.6881 16.6487 17.8523C16.5272 17.9952 16.39 18.1482 16.543 18.4126C16.696 18.6713 17.2247 19.5342 18.0032 20.2272C19.0079 21.1216 19.8224 21.4073 20.1137 21.5288C20.3309 21.6188 20.5896 21.5975 20.7482 21.4287C20.9496 21.2116 21.1982 20.8516 21.4514 20.4972C21.6314 20.243 21.8586 20.2115 22.0971 20.3015C22.3401 20.3858 23.626 21.0215 23.8904 21.1531C24.1547 21.2858 24.3291 21.3488 24.3932 21.4602C24.4562 21.5716 24.4562 22.0947 24.2391 22.709Z" fill="#8A8A8A"/>
</g>
<defs>
<clipPath id="clip0_398_278">
<rect width="18" height="18" fill="white" transform="translate(10 10)"/>
</clipPath>
</defs>
</svg>

<svg xmlns="http://www.w3.org/2000/svg" width="38" height="38" fill="none"><circle cx="19" cy="19" r="19" fill="#8A8A8A"/><g clip-path="url(#a)"><path fill="#0D0D0D" d="M19.002 10h-.004C14.035 10 10 14.037 10 19c0 1.969.634 3.794 1.713 5.275l-1.121 3.344 3.46-1.106A8.923 8.923 0 0 0 19.001 28C23.965 28 28 23.962 28 19s-4.035-9-8.998-9Z"/><path fill="#8A8A8A" d="M24.24 22.709c-.218.613-1.08 1.122-1.767 1.27-.47.1-1.085.18-3.152-.677-2.645-1.096-4.349-3.784-4.481-3.958-.127-.174-1.069-1.423-1.069-2.715 0-1.291.656-1.92.92-2.19.217-.222.576-.323.92-.323.112 0 .212.006.302.01.264.012.397.027.572.445.217.523.745 1.814.808 1.947.065.133.129.313.039.487-.085.18-.159.26-.292.413-.133.153-.258.27-.391.434-.122.143-.259.296-.106.56.153.26.682 1.122 1.46 1.815 1.005.895 1.82 1.18 2.11 1.302.218.09.477.069.635-.1.202-.217.45-.577.703-.932.18-.254.408-.285.646-.195.243.084 1.529.72 1.793.851.265.133.44.196.503.307.063.112.063.635-.154 1.249Z"/></g><defs><clipPath id="a"><path fill="#fff" d="M10 10h18v18H10z"/></clipPath></defs></svg>
